X: 4223
T: MARY DO IT AGAIN
R: Jig
%R: jig
B: James Kerr "Merry Melodies" v.4 p.25 #223
Z: 2016 John Chambers <jc:trillian.mit.edu>
M: 6/8
L: 1/8
K: A
|:\
c2A Bcd | ecA A2B |\
[1 =cBA d2=c  | B2=G G2B :|\
[2 efe d2e | c2A A2e |:\
=g2g (gfe) | d3 c2d |\
e2a a2g |
a2e e2f |\
=g2g (gfe) | d3 (c2d) |\
efe d2e | c2A A2e :|\
(=gfe) (agf) | (ba=g) (agf) |\
(=gfe) (agf) | (=gfe) (dcB) |]

%%sep 1 1 500
%%sep 1 1 500

